X: 20741
T: The Last Pint Ale
%R: air, reel
B: James Oswald "The Caledonian Pocket Companion" v.2 p.74 #1
Z: 2019 John Chambers <jc:trillian.mit.edu>
M: C
L: 1/8
K: G
|:"_Slow"\
G2 (d/B/)G A2 (e/c/)A | (Bg)(dB) A2(GE) |\
G2 (d/B/)G A2 (b/a/)g | eg{e}dB d4 ::\
(=f2e)a (ge)(dB) |
(cB)(AG) Te2d2 |\
(ba/)g/ (ag/e/) (ge/d/) Be | dB {d}c(B/A/) G4 ::\
"_Brisk" G2GB A2Ag | (e/f/g) dB cAFA |
G2GB A2Ag | (e/f/g) dB d2D2 ::\
gabg c'bag | egdB cAFD |\
gabg c'bag | (e/f/g) dB TA2G2 :|


